X: 17
T:Old Copperplate, The
M:C|
L:1/8
R:reel
K:ADor
A2EA cA~A2|aged cAFA|~G2 DG BGBd|gedc BdGB|
A2 EA cA~A2|aged cAGB|ABcd efge|1 aged cAGB:|2aged cA ~A2||
agea ~a2bg|aged cA~A2|agef ~gbaf|gedc BG~G2|
agea ~a2bg|aged cAGB|ABcd efge|aged cA A2:||

